X:1
T:Title
%%score { ( 1 3 ) | 2 }
L:1/8
M:4/4
K:G
V:1 treble nm="Grand Piano"
V:3 treble 
V:2 bass 
V:1
 z4 z2[Q:1/4=100] [G,B,D]2 | [B,DG]3 [CDF] [DG]2 A2 | B3 c B2 [DG]2 | %3
 [CEA]2 [CEA]2 [B,DG]2 [A,CF]2 |[M:3/4] [G,B,G]6 |[M:1/4] [G,B,D]2 | %6
[M:4/4] [B,DG]3 [A,DF] [G,DG]2 [DA]2 | [DB]3 [Ec] [DB]2 [DG]2 | [EA]2 [EA]2 [DG]2 [CF]2 | %9
[M:3/4] [B,G]6 |[M:1/4] B2 |[M:4/4] d3 B e2 d2 | [Fd]3 [Fc] A2 c2 | B2 [DG]2 [CF]2 [B,G]2 | %14
[M:3/4] [DA]6 |[M:1/4] [F,D]2 |[M:4/4] [B,DG]3 [CDF] [DG]2 A2 | B3 c B2 [DG]2 | .A2 z2 z4 | %19
[M:3/4] [B,G]6 |] %20
V:2
 z4 z2 G,,2 | G,,3 A,, B,,2 [D,F,D]2 | [G,D]3 [G,E] [G,D]2 B,,2 | C,2 A,,2 D,2 D,2 |[M:3/4] G,,6 | %5
[M:1/4] G,,2 |[M:4/4] G,,3 C, B,,2 [A,,F,]2 | [G,,G,]3 [G,,G,] [G,,G,]2 [B,,G,]2 | %8
 [C,G,]2 [A,,A,]2 [D,B,]2 [D,A,]2 |[M:3/4] [G,,G,]6 |[M:1/4][K:treble] [G,D]2 | %11
[M:4/4] [G,B,G]3 [G,DG] [G,CG]2 [G,B,G]2 | [D,A,]3 [D,A,] [D,F,D]2 [F,A,D]2 | %13
 [G,D]2 [B,,G,]2 [A,,D,]2 [G,,D,]2 |[M:3/4] [D,F,]6 |[M:1/4] D,2 |[M:4/4] G,,3 A,, B,,2 [D,F,D]2 | %17
 [G,D]3 [G,E] [G,D]2 [B,,G,]2 | [C,G,][B,,^G,] [A,,A,]2 [D,F,]2 [D,F,]2 |[M:3/4] [G,,G,]6 |] %20
V:3
 x8 | x8 | x8 | x8 |[M:3/4] x6 |[M:1/4] x2 |[M:4/4] x8 | x8 | x8 |[M:3/4] x6 |[M:1/4] x2 | %11
[M:4/4] x8 | x8 | x8 |[M:3/4] x6 |[M:1/4] x2 |[M:4/4] x8 | x8 | E-[EB] [Ec]2 [DB]2 [CA]2 | %19
[M:3/4] x6 |] %20

